X:1
T:Title
%%score ( 1 2 ) { 3 | 4 }
L:1/8
Q:1/4=145
M:3/2
K:F
V:1 treble nm="Grand Piano, Soprano"
V:2 treble 
V:3 treble nm="Choir Pad, Coimbatore, LMD, Parvin"
V:4 bass 
V:1
 [CF]2 [CF]2 [FA]2 [Fc]4 [FB]2- | [FB]2 [FA]2 F2 [EG]4 [EG]2- | [EG]2 [EG]2 [FA]2 [FB]4 [FB]2- | %3
w: By~Partly~by~Zimri~Mullen~Parvin,~1875 * * * *|||
 [FB]2 [FA]2 [EG]2 [FA]6 | [CF]2 [CF]2 [FA]2 [Fc]4 [FA]2- | [FA]2 [FB]2 [Fc]2 [Fd]4 [GB]2- | %6
w: |||
 [GB]2 [FA]2 [DG]2 [CF]4 [FA]2- | [FA]2 [EG]2 [CE]2 [CF]6 | [EG]2 [EG]2 [FA]2 [GB]4 [GB]2- | %9
w: |||
 [GB]2 [FA]2 [EG]2 [FA]4 [FA]2- | [FA]2 [FB]2 [Fc]2 [Fd]4 [Fd]2- | [Fd]2 [Fc]2 [FA]2 [EG]6 | %12
w: |||
 C2 C2 C2 [CF]4 [FA]2- | [FA]2 c2- [Fc]2 [Fd]4 [GB]2- | [GB]2 [FA]2 [DG]2 [CF]4 [FA]2- | %15
w: |||
 [FA]2 [EG]2 [CE]2 [CF]6- | [CF]8 z4 |] %17
w: ||
V:2
 x12 | x12 | x12 | x12 | x12 | x12 | x12 | x12 | x12 | x12 | x12 | x12 | z2 .F6 z4 | z2 F2 z4 z4 | %14
 x12 | x12 | x12 |] %17
V:3
 A,2 A,2 C2 A,4 D2- | D2 C2 A,2 C4 C2- | C2 C2 C2 D4 D2- | D2 C2 C2 C6 | A,2 A,2 C2 A,4 C2- | %5
 C2 B,2 A,2 B,4[K:treble] D2- | D2 C2 B,2 A,4 C2- | C2[K:bass] B,2 G,2 A,6 | %8
 C2 C2[K:treble] C2 C4 C2- | C2 C2 C2 C4 C2- | C2[K:bass] B,2 A,2 B,4 B,2- | B,2 A,2 C2 C6 | %12
 A,2 A,2 A,2 A,4 C2- | C2 A,2 A,2 B,4[K:treble] D2- | D2 C2 B,2 A,4[K:bass] C2- | C2 B,2 G,2 A,6- | %16
 A,8 z4 |] %17
V:4
 F,2 F,2 F,2 F,4 F,2- | F,2 F,2 F,2 C,4 C,2- | C,2 C,2 F,2 B,,4 B,,2- | B,,2 C,2 C,2 F,6 | %4
 F,2 F,2 F,2 F,4 _E,2- | E,2 D,2 C,2 B,,4 G,,2- | G,,2 A,,2 B,,2 C,4 C,2- | C,2 C,2 C,2 F,6 | %8
 C,2 C,2 C,2 C,4 C,2- | C,2 C,2 C,2 F,4 F,2- | F,2 F,2 F,2 B,,4 B,,2- | B,,2 F,2 F,2 C,6 | %12
 F,2 F,2 F,2 F,4 F,2- | F,2 F,2 F,2 B,,4 G,,2- | G,,2 A,,2 B,,2 C,4 C,2- | C,2 C,2 C,2 [F,,F,]6- | %16
 [F,,F,]8 z4 |] %17

